dumpster-fire.svg

<svg height="124pt" viewBox="0 0 124 124" width="124pt" xmlns="http://www.w3.org/2000/svg"><g fill="#ff7e27"><path d="m24 2.87c1.27-1.32 3.31-.9 4.93-.74 3.12 1.31 1.88 5.67 4.5 7.47 2.47 2.41 6.18 1.71 9.16 2.82 3.12 2.09 5.23 5.56 8.89 6.89 8.43 3.69 17.81 1.15 26.58 3.02 7.03 1.26 12.99 6.33 16.07 12.68 1.34 2.92 1.78 6.13 2.08 9.3-.21 6.76-3.27 13.38-8.53 17.69-.52.01-1.58.02-2.11.03 2.44-3.31 4.97-6.84 5.45-11.05.58-4.85-.15-10.08-2.88-14.22-2.4-3.66-8.13-5.26-11.61-2.19-3.84 3.47-6.06 8.7-10.93 11.02-8.85 4.2-19.8.08-28.13 5.86-3.53 2.29-4.74 6.54-4.52 10.55-2.91 0-5.82.01-8.73.01-.52-1.97-1.01-3.96-1.38-5.97.78-1.92 1.62-3.82 2.49-5.71 4.63-4.64 11.35-5.87 17.66-5.8 6.53.04 13.89.31 19.04-4.44 1.33-1.53 2.43-3.25 3.35-5.05.74-2.53.68-6.01-1.98-7.39-7.79-4.68-18.08 1.3-25.43-4.59-3.5-2.22-1.83-7.5-5.34-9.67-2.38-1.84-5.49-1.97-8.23-2.93-2.41-1.65-2.56-5.68-.4-7.59z"/><path d="m57.38 8.27c2.64-1.54 6.64.39 6.16 3.7.37 2.51-2.28 4.64-4.67 4.02-3.69-.26-4.39-5.89-1.49-7.72z"/><path d="m45.83 39.98c.65-1.11.58-3.22 2.2-3.39 2.24-.83 3.2 1.82 3.67 3.47-1.22.97-2.66 1.58-4.15 2-.43-.52-1.29-1.56-1.72-2.08z"/></g><path d="m76.53 34.57c3.48-3.07 9.21-1.47 11.61 2.19 2.73 4.14 3.46 9.37 2.88 14.22-.48 4.21-3.01 7.74-5.45 11.05-17.54-.07-35.08-.01-52.62-.03-.22-4.01.99-8.26 4.52-10.55 8.33-5.78 19.28-1.66 28.13-5.86 4.87-2.32 7.09-7.55 10.93-11.02z" fill="#efce0f"/><path d="m26.84 35c12.85.03 25.69-.05 38.54.04-.92 1.8-2.02 3.52-3.35 5.05-3.45-.09-6.89-.14-10.33-.03-.47-1.65-1.43-4.3-3.67-3.47-1.62.17-1.55 2.28-2.2 3.39-5.33.05-10.66-.01-15.99.02-1.54 3.43-3 6.89-4.51 10.33-.87 1.89-1.71 3.79-2.49 5.71-.86 2-1.77 3.98-2.65 5.96 1.34.01 2.69.01 4.03.01 2.91 0 5.82-.01 8.73-.01 17.54.02 35.08-.04 52.62.03.53-.01 1.59-.02 2.11-.03 5.38-.03 10.75.02 16.13.01-2.49-5.92-5.34-11.69-7.6-17.7-.3-3.17-.74-6.38-2.08-9.3.75 0 2.27-.01 3.03-.02 4.69 10.66 9.33 21.34 14.03 32-.74.01-2.21.02-2.95.02.01 16.08.01 32.16.01 48.23-30.83.01-61.66.01-92.49.01-.01-16.08-.02-32.16 0-48.23-.73-.01-2.18-.02-2.91-.03 4.64-10.68 9.31-21.33 13.99-31.99m-6.03 32.04c-.09 14.38-.09 28.76 0 43.14 7.54.12 15.08.1 22.62.01.11-14.39.12-28.78 0-43.17-7.54-.03-15.08-.07-22.62.02m27.76-.02c-.11 14.39-.12 28.78 0 43.17 9.95.09 19.9.09 29.86 0 .12-14.39.11-28.78 0-43.17-9.95-.04-19.91-.04-29.86 0m35 0c-.12 14.39-.12 28.78 0 43.17 6.54.09 13.07.1 19.61-.01.1-14.38.1-28.76 0-43.14-6.53-.08-13.07-.06-19.61-.02z" fill="#008737"/><path d="m29.84 40c5.33-.03 10.66.03 15.99-.02l1.72 2.08c1.49-.42 2.93-1.03 4.15-2 3.44-.11 6.88-.06 10.33.03-5.15 4.75-12.51 4.48-19.04 4.44-6.31-.07-13.03 1.16-17.66 5.8 1.51-3.44 2.97-6.9 4.51-10.33z"/><path d="m96.21 44.31c2.26 6.01 5.11 11.78 7.6 17.7-5.38.01-10.75-.04-16.13-.01 5.26-4.31 8.32-10.93 8.53-17.69z"/><path d="m20.19 62c.88-1.98 1.79-3.96 2.65-5.96.37 2.01.86 4 1.38 5.97-1.34 0-2.69 0-4.03-.01z"/><g fill="#005526"><path d="m20.81 67.04c7.54-.09 15.08-.05 22.62-.02.12 14.39.11 28.78 0 43.17-7.54.09-15.08.11-22.62-.01-.09-14.38-.09-28.76 0-43.14z"/><path d="m48.57 67.02c9.95-.04 19.91-.04 29.86 0 .11 14.39.12 28.78 0 43.17-9.96.09-19.91.09-29.86 0-.12-14.39-.11-28.78 0-43.17z"/><path d="m83.57 67.02c6.54-.04 13.08-.06 19.61.02.1 14.38.1 28.76 0 43.14-6.54.11-13.07.1-19.61.01-.12-14.39-.12-28.78 0-43.17z"/></g></svg>

<svg xmlns="http://www.w3.org/2000/svg" width="124pt" height="124pt" viewBox="0 0 124 124"><g fill="#ff7e27"><path d="M 24.00 2.87 C 25.27 1.55 27.31 1.97 28.93 2.13 C 32.05 3.44 30.81 7.80 33.43 9.60 C 35.90 12.01 39.61 11.31 42.59 12.42 C 45.71 14.51 47.82 17.98 51.48 19.31 C 59.91 23.00 69.29 20.46 78.06 22.33 C 85.09 23.59 91.05 28.66 94.13 35.01 C 95.47 37.93 95.91 41.14 96.21 44.31 C 96.00 51.07 92.94 57.69 87.68 62.00 C 87.16 62.01 86.10 62.02 85.57 62.03 C 88.01 58.72 90.54 55.19 91.02 50.98 C 91.60 46.13 90.87 40.90 88.14 36.76 C 85.74 33.10 80.01 31.50 76.53 34.57 C 72.69 38.04 70.47 43.27 65.60 45.59 C 56.75 49.79 45.80 45.67 37.47 51.45 C 33.94 53.74 32.73 57.99 32.95 62.00 C 30.04 62.00 27.13 62.01 24.22 62.01 C 23.70 60.04 23.21 58.05 22.84 56.04 C 23.62 54.12 24.46 52.22 25.33 50.33 C 29.96 45.69 36.68 44.46 42.99 44.53 C 49.52 44.57 56.88 44.84 62.03 40.09 C 63.36 38.56 64.46 36.84 65.38 35.04 C 66.12 32.51 66.06 29.03 63.40 27.65 C 55.61 22.97 45.32 28.95 37.97 23.06 C 34.47 20.84 36.14 15.56 32.63 13.39 C 30.25 11.55 27.14 11.42 24.40 10.46 C 21.99 8.81 21.84 4.78 24.00 2.87 Z"/><path d="M 57.38 8.27 C 60.02 6.73 64.02 8.66 63.54 11.97 C 63.91 14.48 61.26 16.61 58.87 15.99 C 55.18 15.73 54.48 10.10 57.38 8.27 Z"/><path d="M 45.83 39.98 C 46.48 38.87 46.41 36.76 48.03 36.59 C 50.27 35.76 51.23 38.41 51.70 40.06 C 50.48 41.03 49.04 41.64 47.55 42.06 C 47.12 41.54 46.26 40.50 45.83 39.98 Z"/></g><path fill="#efce0f" d="M 76.53 34.57 C 80.01 31.50 85.74 33.10 88.14 36.76 C 90.87 40.90 91.60 46.13 91.02 50.98 C 90.54 55.19 88.01 58.72 85.57 62.03 C 68.03 61.96 50.49 62.02 32.95 62.00 C 32.73 57.99 33.94 53.74 37.47 51.45 C 45.80 45.67 56.75 49.79 65.60 45.59 C 70.47 43.27 72.69 38.04 76.53 34.57 Z"/><path fill="#008737" d="M 26.84 35.00 C 39.69 35.03 52.53 34.95 65.38 35.04 C 64.46 36.84 63.36 38.56 62.03 40.09 C 58.58 40.00 55.14 39.95 51.70 40.06 C 51.23 38.41 50.27 35.76 48.03 36.59 C 46.41 36.76 46.48 38.87 45.83 39.98 C 40.50 40.03 35.17 39.97 29.84 40.00 C 28.30 43.43 26.84 46.89 25.33 50.33 C 24.46 52.22 23.62 54.12 22.84 56.04 C 21.98 58.04 21.07 60.02 20.19 62.00 C 21.53 62.01 22.88 62.01 24.22 62.01 C 27.13 62.01 30.04 62.00 32.95 62.00 C 50.49 62.02 68.03 61.96 85.57 62.03 C 86.10 62.02 87.16 62.01 87.68 62.00 C 93.06 61.97 98.43 62.02 103.81 62.01 C 101.32 56.09 98.47 50.32 96.21 44.31 C 95.91 41.14 95.47 37.93 94.13 35.01 C 94.88 35.01 96.40 35.00 97.16 34.99 C 101.85 45.65 106.49 56.33 111.19 66.99 C 110.45 67.00 108.98 67.01 108.24 67.01 C 108.25 83.09 108.25 99.17 108.25 115.24 C 77.42 115.25 46.59 115.25 15.76 115.25 C 15.75 99.17 15.74 83.09 15.76 67.02 C 15.03 67.01 13.58 67.00 12.85 66.99 C 17.49 56.31 22.16 45.66 26.84 35.00 M 20.81 67.04 C 20.72 81.42 20.72 95.80 20.81 110.18 C 28.35 110.30 35.89 110.28 43.43 110.19 C 43.54 95.80 43.55 81.41 43.43 67.02 C 35.89 66.99 28.35 66.95 20.81 67.04 M 48.57 67.02 C 48.46 81.41 48.45 95.80 48.57 110.19 C 58.52 110.28 68.47 110.28 78.43 110.19 C 78.55 95.80 78.54 81.41 78.43 67.02 C 68.48 66.98 58.52 66.98 48.57 67.02 M 83.57 67.02 C 83.45 81.41 83.45 95.80 83.57 110.19 C 90.11 110.28 96.64 110.29 103.18 110.18 C 103.28 95.80 103.28 81.42 103.18 67.04 C 96.65 66.96 90.11 66.98 83.57 67.02 Z"/><path d="M 29.84 40.00 C 35.17 39.97 40.50 40.03 45.83 39.98 C 46.26 40.50 47.12 41.54 47.55 42.06 C 49.04 41.64 50.48 41.03 51.70 40.06 C 55.14 39.95 58.58 40.00 62.03 40.09 C 56.88 44.84 49.52 44.57 42.99 44.53 C 36.68 44.46 29.96 45.69 25.33 50.33 C 26.84 46.89 28.30 43.43 29.84 40.00 Z"/><path d="M 96.21 44.31 C 98.47 50.32 101.32 56.09 103.81 62.01 C 98.43 62.02 93.06 61.97 87.68 62.00 C 92.94 57.69 96.00 51.07 96.21 44.31 Z"/><path d="M 20.19 62.00 C 21.07 60.02 21.98 58.04 22.84 56.04 C 23.21 58.05 23.70 60.04 24.22 62.01 C 22.88 62.01 21.53 62.01 20.19 62.00 Z"/><g fill="#005526"><path d="M 20.81 67.04 C 28.35 66.95 35.89 66.99 43.43 67.02 C 43.55 81.41 43.54 95.80 43.43 110.19 C 35.89 110.28 28.35 110.30 20.81 110.18 C 20.72 95.80 20.72 81.42 20.81 67.04 Z"/><path d="M 48.57 67.02 C 58.52 66.98 68.48 66.98 78.43 67.02 C 78.54 81.41 78.55 95.80 78.43 110.19 C 68.47 110.28 58.52 110.28 48.57 110.19 C 48.45 95.80 48.46 81.41 48.57 67.02 Z"/><path d="M 83.57 67.02 C 90.11 66.98 96.65 66.96 103.18 67.04 C 103.28 81.42 103.28 95.80 103.18 110.18 C 96.64 110.29 90.11 110.28 83.57 110.19 C 83.45 95.80 83.45 81.41 83.57 67.02 Z"/></g></svg>
